_inc/images/systems/logos/zx81.svg

<svg viewBox="0 0 264 82" xmlns="http://www.w3.org/2000/svg">
    <path d="M47.438 3.605v3.606h8.765V0h-8.765v3.605Zm161.906 0v3.606h8.765V0h-8.765v3.605ZM152.109 18.8v18.285h8.766V.515h-8.766V18.8ZM0 17.512v8.757l18.202.103c17.737.154 18.15.154 18.15 1.184s-.413 1.03-18.15 1.185L0 28.844v7.726h45.375V19.058H9.281v-2.576h36.094V8.757H0v8.755Zm47.438 5.151V36.57h8.765V8.757h-8.765v13.906Zm10.828 0V36.57h9.281V16.482h26.812V36.57h9.282V8.757H58.266v13.906Zm46.922 0V36.57h44.859v-7.726h-36.094V16.482h36.094V8.757h-44.859v13.906Zm57.75-10.044v3.863l17.685.103c17.222.155 17.635.155 17.635 1.185s-.413 1.03-17.635 1.185l-17.685.103V36.57h44.859V8.757h-44.859v3.862Zm35.32 14.937c0 .979-.413 1.03-13.252 1.185-12.633.103-13.303.051-13.303-.824 0-.515.155-1.134.361-1.34.206-.153 6.136-.257 13.252-.205 12.529.154 12.942.205 12.942 1.184Zm11.086-4.893V36.57h8.765V8.757h-8.765v13.906Zm10.312 0V36.57h9.282l.103-9.941.154-9.889 17.428-.155L264 16.482V8.757h-44.344v13.906ZM79.406 46.356v3.091h8.766c4.847 0 8.766.155 8.766.36 0 .258-4.435 5.82-9.797 12.413l-9.797 12.002v7.16h30.937V75.2l-10.828-.103-10.88-.155 10.622-13.031 10.622-12.98-.154-2.729-.155-2.679-14.025-.154-14.077-.103v3.09Zm31.917-2.112c.31.567 2.888 4.585 5.724 8.911 2.887 4.327 5.105 8.241 5.001 8.654-.103.411-2.887 4.892-6.187 9.941-3.352 5.047-6.033 9.271-6.033 9.374 0 .155 2.011.258 4.538.258h4.486l4.228-6.542 4.176-6.541 4.228 6.541 4.229 6.542h4.64c3.558 0 4.486-.155 4.228-.619-.206-.36-3.145-4.79-6.497-9.786L132 61.861l5.93-9.17 5.878-9.168-3.919-.154c-2.166-.103-4.228-.052-4.537.103-.361.103-2.218 2.781-4.125 5.923-1.908 3.143-3.61 5.718-3.816 5.718-.155 0-1.959-2.627-3.919-5.821l-3.609-5.769-4.538-.154c-4.382-.154-4.537-.103-4.022.875Zm42.282.464c-5.93 3.091-6.91 10.765-1.857 14.783l1.805 1.442-1.598 1.081c-4.899 3.297-5.878 10.714-2.063 15.71 1.96 2.576 6.188 4.327 10.416 4.275 4.331 0 7.322-1.184 9.539-3.76 3.97-4.635 3.867-11.383-.206-15.091-1.135-1.031-2.321-1.855-2.682-1.855-.309 0 .361-.875 1.496-1.957 2.372-2.163 3.454-5.099 2.939-7.88-1.031-5.408-4.899-8.19-11.499-8.19-2.887 0-4.073.257-6.29 1.442Zm9.59 5.511c.877.824 1.289 1.803 1.289 3.04 0 2.472-.412 3.347-2.114 4.171-2.062 1.082-3.815.927-5.465-.463-1.135-.979-1.444-1.648-1.444-3.4 0-1.751.309-2.42 1.444-3.399 1.959-1.648 4.64-1.648 6.29.051Zm-.773 14.423c3.558 1.854 4.125 7.417 1.083 10.147-4.95 4.429-11.344-2.37-7.786-8.242 1.598-2.575 4.022-3.296 6.703-1.905Zm16.5-2.318v19.058h7.734V43.266h-7.734v19.058Z" style="fill:#fff"/>
</svg>

<?xml version="1.0" encoding="utf-8"?>
<svg viewBox="0 0 264 82" xmlns="http://www.w3.org/2000/svg">
  <path d="M 47.438 3.605 L 47.438 7.211 L 51.82 7.211 L 56.203 7.211 L 56.203 3.605 L 56.203 0 L 51.82 0 L 47.438 0 L 47.438 3.605 Z" style="fill: rgb(255, 255, 255);"/>
  <path d="M 209.344 3.605 L 209.344 7.211 L 213.727 7.211 L 218.109 7.211 L 218.109 3.605 L 218.109 0 L 213.727 0 L 209.344 0 L 209.344 3.605 Z" style="fill: rgb(255, 255, 255);"/>
  <path d="M 152.109 18.8 L 152.109 37.085 L 156.492 37.085 L 160.875 37.085 L 160.875 18.8 L 160.875 0.515 L 156.492 0.515 L 152.109 0.515 L 152.109 18.8 Z" style="fill: rgb(255, 255, 255);"/>
  <path d="M 0 17.512 L 0 26.269 L 18.202 26.372 C 35.939 26.526 36.352 26.526 36.352 27.556 C 36.352 28.586 35.939 28.586 18.202 28.741 L 0 28.844 L 0 32.707 L 0 36.57 L 22.688 36.57 L 45.375 36.57 L 45.375 27.814 L 45.375 19.058 L 27.328 19.058 L 9.281 19.058 L 9.281 17.77 L 9.281 16.482 L 27.328 16.482 L 45.375 16.482 L 45.375 12.619 L 45.375 8.757 L 22.688 8.757 L 0 8.757 L 0 17.512 Z" style="fill: rgb(255, 255, 255);"/>
  <path d="M 47.438 22.663 L 47.438 36.57 L 51.82 36.57 L 56.203 36.57 L 56.203 22.663 L 56.203 8.757 L 51.82 8.757 L 47.438 8.757 L 47.438 22.663 Z" style="fill: rgb(255, 255, 255);"/>
  <path d="M 58.266 22.663 L 58.266 36.57 L 62.906 36.57 L 67.547 36.57 L 67.547 26.526 L 67.547 16.482 L 80.953 16.482 L 94.359 16.482 L 94.359 26.526 L 94.359 36.57 L 99 36.57 L 103.641 36.57 L 103.641 22.663 L 103.641 8.757 L 80.953 8.757 L 58.266 8.757 L 58.266 22.663 Z" style="fill: rgb(255, 255, 255);"/>
  <path d="M 105.188 22.663 L 105.188 36.57 L 127.617 36.57 L 150.047 36.57 L 150.047 32.707 L 150.047 28.844 L 132 28.844 L 113.953 28.844 L 113.953 22.663 L 113.953 16.482 L 132 16.482 L 150.047 16.482 L 150.047 12.619 L 150.047 8.757 L 127.617 8.757 L 105.188 8.757 L 105.188 22.663 Z" style="fill: rgb(255, 255, 255);"/>
  <path d="M 162.938 12.619 L 162.938 16.482 L 180.623 16.585 C 197.845 16.74 198.258 16.74 198.258 17.77 C 198.258 18.8 197.845 18.8 180.623 18.955 L 162.938 19.058 L 162.938 27.814 L 162.938 36.57 L 185.367 36.57 L 207.797 36.57 L 207.797 22.663 L 207.797 8.757 L 185.367 8.757 L 162.938 8.757 L 162.938 12.619 Z M 198.258 27.556 C 198.258 28.535 197.845 28.586 185.006 28.741 C 172.373 28.844 171.703 28.792 171.703 27.917 C 171.703 27.402 171.858 26.783 172.064 26.577 C 172.27 26.424 178.2 26.32 185.316 26.372 C 197.845 26.526 198.258 26.577 198.258 27.556 Z" style="fill: rgb(255, 255, 255);"/>
  <path d="M 209.344 22.663 L 209.344 36.57 L 213.727 36.57 L 218.109 36.57 L 218.109 22.663 L 218.109 8.757 L 213.727 8.757 L 209.344 8.757 L 209.344 22.663 Z" style="fill: rgb(255, 255, 255);"/>
  <path d="M 219.656 22.663 L 219.656 36.57 L 224.297 36.57 L 228.938 36.57 L 229.041 26.629 L 229.195 16.74 L 246.623 16.585 L 264 16.482 L 264 12.619 L 264 8.757 L 241.828 8.757 L 219.656 8.757 L 219.656 22.663 Z" style="fill: rgb(255, 255, 255);"/>
  <path d="M 79.406 46.356 L 79.406 49.447 L 88.172 49.447 C 93.019 49.447 96.938 49.602 96.938 49.807 C 96.938 50.065 92.503 55.627 87.141 62.22 L 77.344 74.222 L 77.344 77.827 L 77.344 81.382 L 92.813 81.382 L 108.281 81.382 L 108.281 78.291 L 108.281 75.2 L 97.453 75.097 L 86.573 74.942 L 97.195 61.911 L 107.817 48.931 L 107.663 46.202 L 107.508 43.523 L 93.483 43.369 L 79.406 43.266 L 79.406 46.356 Z" style="fill: rgb(255, 255, 255);"/>
  <path d="M 111.323 44.244 C 111.633 44.811 114.211 48.829 117.047 53.155 C 119.934 57.482 122.152 61.396 122.048 61.809 C 121.945 62.22 119.161 66.701 115.861 71.75 C 112.509 76.797 109.828 81.021 109.828 81.124 C 109.828 81.279 111.839 81.382 114.366 81.382 L 118.852 81.382 L 123.08 74.84 L 127.256 68.299 L 131.484 74.84 L 135.713 81.382 L 140.353 81.382 C 143.911 81.382 144.839 81.227 144.581 80.763 C 144.375 80.403 141.436 75.973 138.084 70.977 L 132 61.861 L 137.93 52.691 L 143.808 43.523 L 139.889 43.369 C 137.723 43.266 135.661 43.317 135.352 43.472 C 134.991 43.575 133.134 46.253 131.227 49.395 C 129.319 52.538 127.617 55.113 127.411 55.113 C 127.256 55.113 125.452 52.486 123.492 49.292 L 119.883 43.523 L 115.345 43.369 C 110.963 43.215 110.808 43.266 111.323 44.244 Z" style="fill: rgb(255, 255, 255);"/>
  <path d="M 153.605 44.708 C 147.675 47.799 146.695 55.473 151.748 59.491 L 153.553 60.933 L 151.955 62.014 C 147.056 65.311 146.077 72.728 149.892 77.724 C 151.852 80.3 156.08 82.051 160.308 81.999 C 164.639 81.999 167.63 80.815 169.847 78.239 C 173.817 73.604 173.714 66.856 169.641 63.148 C 168.506 62.117 167.32 61.293 166.959 61.293 C 166.65 61.293 167.32 60.418 168.455 59.336 C 170.827 57.173 171.909 54.237 171.394 51.456 C 170.363 46.048 166.495 43.266 159.895 43.266 C 157.008 43.266 155.822 43.523 153.605 44.708 Z M 163.195 50.219 C 164.072 51.043 164.484 52.022 164.484 53.259 C 164.484 55.731 164.072 56.606 162.37 57.43 C 160.308 58.512 158.555 58.357 156.905 56.967 C 155.77 55.988 155.461 55.319 155.461 53.567 C 155.461 51.816 155.77 51.147 156.905 50.168 C 158.864 48.52 161.545 48.52 163.195 50.219 Z M 162.422 64.642 C 165.98 66.496 166.547 72.059 163.505 74.789 C 158.555 79.218 152.161 72.419 155.719 66.547 C 157.317 63.972 159.741 63.251 162.422 64.642 Z" style="fill: rgb(255, 255, 255);"/>
  <path d="M 178.922 62.324 L 178.922 81.382 L 182.789 81.382 L 186.656 81.382 L 186.656 62.324 L 186.656 43.266 L 182.789 43.266 L 178.922 43.266 L 178.922 62.324 Z" style="fill: rgb(255, 255, 255);"/>
</svg>
